X: 10
T:Muiñeira nº1
M:6/8
L:1/8
Q:200
C:E. Otero
R:Muiñeira
B:Leccións de Gaita. OTERO COVELO
K:C
G>AG |: F>EF D>EF | E>DC E>DC | G>AG F>EF |
D3 F>EF | D>EF G>AG | E>DE F>EF | G>AG F>ED |1 C3 G>AG :|2 
C3 E>DE |: C3 E>DE  | C3 E>DE | C>DE | F>EF |D3 F>EF|
D3 F>EF |D3 F>EF | G>AG F>ED |1 C3 E>DE :|2 C3 ||

